X:68
T:Sergeant Early's Dream
M:C|
L:1/8
Q:120
R:Reel (Key of Ddor)
K:Ddor
dc |: "Dm"AFDE FAcA | "C"GECD EFGE | "Dm"DA, ~A,2 DEFG | Adde fedc|
AFDE FAcA | "C"GECD EFGE | "Dm"DA,DE FEFG | Addc cddc :|:
"Dm"Add^c d2de | f2ed cAGF | "C"ECEG cBcd | ecdB cdBc |
"Dm"Add^c d2de | f2ed cAGc | "Am"AE~E2 cE~E2 |1 CE~E2 "Dm"D2EG :|2 CE~E2 "Dm"D2 |]
